markup/images/icon37.svg

<svg xmlns="http://www.w3.org/2000/svg" width="41" height="37"><path fill-rule="evenodd" fill="#FFF" d="M37.878 36.112a8.23 8.23 0 0 1-7.428 0 6.14 6.14 0 0 0-3.122-.752 6.134 6.134 0 0 0-3.121.752 7.54 7.54 0 0 1-3.711.886 7.533 7.533 0 0 1-3.712-.886 6.14 6.14 0 0 0-3.122-.752 6.133 6.133 0 0 0-3.12.752 7.53 7.53 0 0 1-3.711.886 7.54 7.54 0 0 1-3.711-.886 6.127 6.127 0 0 0-3.119-.752v-1.365a7.526 7.526 0 0 1 3.71.886 6.133 6.133 0 0 0 3.12.752 6.127 6.127 0 0 0 3.119-.752 7.536 7.536 0 0 1 3.712-.886 7.54 7.54 0 0 1 3.713.886 6.134 6.134 0 0 0 3.121.752 6.133 6.133 0 0 0 3.12-.752 7.533 7.533 0 0 1 3.712-.886 7.54 7.54 0 0 1 3.713.886 6.14 6.14 0 0 0 3.122.752 6.139 6.139 0 0 0 3.123-.752A7.54 7.54 0 0 1 41 33.995v1.365a6.138 6.138 0 0 0-3.122.752zm-7.428-4.778a6.15 6.15 0 0 0-3.122-.751 6.143 6.143 0 0 0-3.121.751 7.53 7.53 0 0 1-3.711.887 7.523 7.523 0 0 1-3.712-.887 6.15 6.15 0 0 0-3.122-.751 6.142 6.142 0 0 0-3.12.751 7.52 7.52 0 0 1-3.711.887 7.53 7.53 0 0 1-3.711-.887 6.136 6.136 0 0 0-3.119-.751v-1.365a7.526 7.526 0 0 1 3.71.886 6.133 6.133 0 0 0 3.12.752 6.127 6.127 0 0 0 3.119-.752 7.536 7.536 0 0 1 3.712-.886 7.54 7.54 0 0 1 3.713.886 6.134 6.134 0 0 0 3.121.752 6.133 6.133 0 0 0 3.12-.752 7.533 7.533 0 0 1 3.712-.886 7.54 7.54 0 0 1 3.713.886 6.14 6.14 0 0 0 3.122.752 6.139 6.139 0 0 0 3.123-.752A7.54 7.54 0 0 1 41 29.218v1.365a6.147 6.147 0 0 0-3.122.751 8.223 8.223 0 0 1-7.428 0zm0-4.776a6.14 6.14 0 0 0-3.122-.752 6.134 6.134 0 0 0-3.121.752 7.54 7.54 0 0 1-3.711.886 7.533 7.533 0 0 1-3.712-.886 6.14 6.14 0 0 0-3.122-.752 6.133 6.133 0 0 0-3.12.752 7.53 7.53 0 0 1-3.711.886 7.54 7.54 0 0 1-3.711-.886 6.127 6.127 0 0 0-3.119-.752v-1.365a7.526 7.526 0 0 1 3.71.886 6.133 6.133 0 0 0 3.12.752 6.127 6.127 0 0 0 3.119-.752 7.536 7.536 0 0 1 3.712-.886h.005v-8.357L1.738 8.711a2.863 2.863 0 0 1-.95-3.91 2.87 2.87 0 0 1 3.936-.983l11.866 7.111h.054a6.138 6.138 0 0 1 0-9.57 6.156 6.156 0 0 1 8.648.933 6.138 6.138 0 0 1-.934 8.637h.059l11.199-6.475a2.868 2.868 0 0 1 3.893 1.004 2.86 2.86 0 0 1-.982 3.927l-11.193 6.707v8.349a7.539 7.539 0 0 1 3.707.886 6.14 6.14 0 0 0 3.122.752 6.139 6.139 0 0 0 3.123-.752A7.54 7.54 0 0 1 41 24.441v1.365a6.138 6.138 0 0 0-3.122.752 8.23 8.23 0 0 1-7.428 0zM25.284 6.152a4.78 4.78 0 0 0-4.783-4.777 4.78 4.78 0 0 0-4.784 4.777 4.787 4.787 0 0 0 4.785 4.777 4.781 4.781 0 0 0 4.782-4.777zm12.54 2.063a1.497 1.497 0 0 0-1.523-2.58l-11.358 6.567a.686.686 0 0 1-.343.092h-8.199a.682.682 0 0 1-.352-.098L4.02 4.988a1.507 1.507 0 0 0-2.049.497 1.5 1.5 0 0 0 .486 2.065l12.253 7.573a.68.68 0 0 1 .324.58v8.84a7.79 7.79 0 0 1 2.341.784 6.134 6.134 0 0 0 3.121.752 6.143 6.143 0 0 0 3.12-.752 7.78 7.78 0 0 1 2.351-.786v-8.835c0-.24.126-.462.332-.585l11.525-6.906z"/></svg>

<svg 
 xmlns="http://www.w3.org/2000/svg"
 xmlns:xlink="http://www.w3.org/1999/xlink"
 width="41px" height="37px">
<path fill-rule="evenodd"  fill="rgb(255, 255, 255)"
 d="M37.878,36.112 C35.543,37.293 32.784,37.293 30.450,36.112 C29.494,35.589 28.417,35.329 27.328,35.360 C26.239,35.329 25.162,35.589 24.207,36.112 C23.067,36.720 21.789,37.026 20.496,36.998 C19.203,37.026 17.924,36.721 16.784,36.112 C15.828,35.589 14.751,35.329 13.662,35.360 C12.574,35.329 11.497,35.589 10.542,36.112 C9.402,36.721 8.124,37.026 6.831,36.998 C5.538,37.026 4.260,36.720 3.120,36.112 C2.166,35.589 1.089,35.329 0.001,35.360 L0.001,33.995 C1.294,33.967 2.571,34.272 3.711,34.881 C4.666,35.404 5.743,35.664 6.831,35.633 C7.919,35.664 8.996,35.404 9.950,34.881 C11.091,34.272 12.369,33.967 13.662,33.995 C14.955,33.967 16.234,34.272 17.375,34.881 C18.330,35.404 19.407,35.664 20.496,35.633 C21.584,35.664 22.661,35.404 23.616,34.881 C24.756,34.272 26.035,33.967 27.328,33.995 C28.621,33.967 29.900,34.272 31.041,34.881 C31.997,35.404 33.074,35.664 34.163,35.633 C35.253,35.664 36.331,35.404 37.286,34.881 C38.427,34.272 39.706,33.967 41.000,33.995 L41.000,35.360 C39.911,35.329 38.833,35.589 37.878,36.112 ZM30.450,31.334 C29.494,30.812 28.417,30.552 27.328,30.583 C26.239,30.552 25.162,30.812 24.207,31.334 C23.067,31.943 21.789,32.249 20.496,32.221 C19.203,32.249 17.924,31.944 16.784,31.334 C15.828,30.812 14.751,30.552 13.662,30.583 C12.574,30.552 11.497,30.812 10.542,31.334 C9.402,31.944 8.124,32.249 6.831,32.221 C5.538,32.249 4.260,31.943 3.120,31.334 C2.166,30.812 1.089,30.552 0.001,30.583 L0.001,29.218 C1.294,29.190 2.571,29.495 3.711,30.104 C4.666,30.627 5.743,30.887 6.831,30.856 C7.919,30.887 8.996,30.627 9.950,30.104 C11.091,29.495 12.369,29.190 13.662,29.218 C14.955,29.190 16.234,29.495 17.375,30.104 C18.330,30.627 19.407,30.887 20.496,30.856 C21.584,30.887 22.661,30.627 23.616,30.104 C24.756,29.495 26.035,29.190 27.328,29.218 C28.621,29.190 29.900,29.495 31.041,30.104 C31.997,30.627 33.074,30.887 34.163,30.856 C35.253,30.887 36.331,30.627 37.286,30.104 C38.427,29.495 39.706,29.190 41.000,29.218 L41.000,30.583 C39.911,30.552 38.833,30.812 37.878,31.334 C35.543,32.516 32.784,32.516 30.450,31.334 ZM30.450,26.558 C29.494,26.035 28.417,25.775 27.328,25.806 C26.239,25.775 25.162,26.035 24.207,26.558 C23.067,27.166 21.789,27.472 20.496,27.444 C19.203,27.472 17.924,27.167 16.784,26.558 C15.828,26.035 14.751,25.775 13.662,25.806 C12.574,25.775 11.497,26.035 10.542,26.558 C9.402,27.167 8.124,27.472 6.831,27.444 C5.538,27.472 4.260,27.166 3.120,26.558 C2.166,26.035 1.089,25.775 0.001,25.806 L0.001,24.441 C1.294,24.413 2.571,24.718 3.711,25.327 C4.666,25.850 5.743,26.110 6.831,26.079 C7.919,26.110 8.996,25.850 9.950,25.327 C11.091,24.718 12.369,24.413 13.662,24.441 L13.667,24.441 L13.667,16.084 L1.738,8.711 C0.404,7.886 -0.019,6.145 0.788,4.801 C1.603,3.444 3.365,3.004 4.724,3.818 L16.590,10.929 L16.644,10.929 C16.300,10.652 15.987,10.340 15.710,9.996 C13.580,7.353 13.998,3.487 16.644,1.359 C19.290,-0.768 23.162,-0.351 25.292,2.292 C27.422,4.935 27.004,8.802 24.358,10.929 L24.417,10.929 L35.616,4.454 C36.971,3.671 38.704,4.118 39.509,5.458 C40.324,6.813 39.884,8.572 38.527,9.385 L27.334,16.092 L27.334,24.441 C28.625,24.414 29.902,24.719 31.041,25.327 C31.997,25.850 33.074,26.110 34.163,26.079 C35.253,26.110 36.331,25.850 37.286,25.327 C38.427,24.718 39.706,24.413 41.000,24.441 L41.000,25.806 C39.911,25.775 38.833,26.035 37.878,26.558 C35.543,27.739 32.784,27.739 30.450,26.558 ZM25.284,6.152 C25.284,3.514 23.142,1.375 20.501,1.375 C17.859,1.375 15.717,3.514 15.717,6.152 C15.721,8.789 17.861,10.926 20.502,10.929 C23.143,10.928 25.284,8.789 25.284,6.152 ZM37.824,8.215 C38.525,7.794 38.759,6.889 38.350,6.182 C37.935,5.466 37.018,5.221 36.301,5.635 L24.943,12.202 C24.839,12.262 24.721,12.294 24.600,12.294 L16.401,12.294 C16.277,12.294 16.155,12.260 16.049,12.196 L4.020,4.988 C3.375,4.604 2.545,4.753 2.075,5.338 C2.038,5.385 2.003,5.434 1.971,5.485 C1.535,6.189 1.752,7.114 2.457,7.550 L14.710,15.123 C14.912,15.247 15.034,15.467 15.034,15.703 L15.034,24.543 C15.851,24.678 16.641,24.943 17.375,25.327 C18.330,25.850 19.407,26.110 20.496,26.079 C21.584,26.109 22.661,25.850 23.616,25.327 C24.352,24.941 25.146,24.676 25.967,24.541 L25.967,15.706 C25.967,15.466 26.093,15.244 26.299,15.121 L37.824,8.215 Z"/>
</svg>
